packages/tokens/icons/coinStack/size32Px.svg

<svg viewBox="0 0 32 32" fill="none" xmlns="http://www.w3.org/2000/svg" width="1em" height="1em"><path d="M14.1785 17.6251V17.4736V17.4736C14.1785 16.6695 13.5266 16.0177 12.7226 16.0177H10.1607C9.27305 16.0177 8.55347 16.7373 8.55347 17.6249V17.6249C8.55347 18.5126 9.27304 19.2322 10.1607 19.2322L12.7053 19.2322C13.6668 19.2322 14.4463 20.0117 14.4463 20.9733V20.9733C14.4463 21.9349 13.6668 22.7144 12.7052 22.7144H10.1254C9.25725 22.7144 8.55347 22.0106 8.55347 21.1425V21.1425V20.8394" stroke="currentColor" stroke-linecap="round"/><path d="M11.4999 15.2141L11.4999 23.7855" stroke="currentColor" stroke-linecap="round"/><circle cx="11.5" cy="19.5" r="7" stroke="currentColor"/><path d="M27.5 25.5C27.5 26.6046 24.4183 27.5 20 27.5C18.9099 27.5 17.9012 27.4455 17 27.3468" stroke="currentColor" stroke-linecap="round"/><path d="M27.5 10C27.5 11.0257 24.1421 11.8571 20 11.8571C15.8579 11.8571 12.5 11.0257 12.5 10M27.5 15.5714C27.5 16.5131 24.6694 17.2911 21 17.4122M27.5 21.1429C27.5 22.0846 24.6694 22.8626 21 22.9836" stroke="currentColor" stroke-linecap="round"/><path d="M12.5 6V10" stroke="currentColor" stroke-linecap="round" stroke-linejoin="round"/><path d="M27.5 25.5L27.5 6" stroke="currentColor" stroke-linecap="round"/><path d="M27.5 6C27.5 6.0005 27.5 6.00154 27.4996 6.00356C27.4991 6.00566 27.4981 6.00984 27.4955 6.01631C27.4901 6.02952 27.4778 6.05314 27.4506 6.08637C27.3937 6.1558 27.2894 6.24612 27.1169 6.34806C26.7714 6.55225 26.2383 6.75347 25.5356 6.92914C24.1379 7.27856 22.1806 7.5 20 7.5C17.8194 7.5 15.8621 7.27856 14.4644 6.92914C13.7617 6.75347 13.2286 6.55225 12.8831 6.34806C12.7106 6.24612 12.6063 6.1558 12.5494 6.08637C12.5222 6.05314 12.5099 6.02952 12.5045 6.01631C12.5019 6.00984 12.5009 6.00566 12.5004 6.00356C12.5 6.00154 12.5 6.0005 12.5 6C12.5 5.9995 12.5 5.99846 12.5004 5.99644C12.5009 5.99434 12.5019 5.99016 12.5045 5.98369C12.5099 5.97048 12.5222 5.94686 12.5494 5.91363C12.6063 5.8442 12.7106 5.75388 12.8831 5.65194C13.2286 5.44775 13.7617 5.24653 14.4644 5.07086C15.8621 4.72144 17.8194 4.5 20 4.5C22.1806 4.5 24.1379 4.72144 25.5356 5.07086C26.2383 5.24653 26.7714 5.44775 27.1169 5.65194C27.2894 5.75388 27.3937 5.8442 27.4506 5.91363C27.4778 5.94686 27.4901 5.97048 27.4955 5.98369C27.4981 5.99016 27.4991 5.99434 27.4996 5.99644C27.5 5.99846 27.5 5.9995 27.5 6Z" stroke="currentColor"/></svg>

<svg xmlns="http://www.w3.org/2000/svg" fill="none" viewBox="0 0 32 32" width="1em" height="1em"><path stroke="currentColor" stroke-linecap="round" d="M14.178 17.625v-.151 0c0-.805-.651-1.456-1.455-1.456H10.16c-.888 0-1.608.72-1.608 1.607v0c0 .888.72 1.607 1.608 1.607h2.544c.962 0 1.741.78 1.741 1.741v0a1.74 1.74 0 0 1-1.74 1.741h-2.58a1.572 1.572 0 0 1-1.573-1.572v0-.303m2.948-5.625v8.571"/><circle cx="11.5" cy="19.5" r="7" stroke="currentColor"/><path stroke="currentColor" stroke-linecap="round" d="M27.5 25.5c0 1.105-3.082 2-7.5 2a27.76 27.76 0 0 1-3-.153M27.5 10c0 1.026-3.358 1.857-7.5 1.857-4.142 0-7.5-.831-7.5-1.857m15 5.571c0 .942-2.83 1.72-6.5 1.841m6.5 3.73c0 .943-2.83 1.72-6.5 1.842"/><path stroke="currentColor" stroke-linecap="round" stroke-linejoin="round" d="M12.5 6v4"/><path stroke="currentColor" stroke-linecap="round" d="M27.5 25.5V6"/><path stroke="currentColor" d="M27.5 6v.004a.287.287 0 0 1-.049.083c-.057.069-.162.16-.334.261-.346.204-.879.405-1.581.581-1.398.35-3.355.571-5.536.571-2.18 0-4.138-.221-5.536-.57-.702-.177-1.235-.378-1.58-.582a1.269 1.269 0 0 1-.335-.262.287.287 0 0 1-.049-.082v-.008l.005-.012a.287.287 0 0 1 .044-.07c.057-.07.162-.16.334-.262.346-.204.879-.405 1.581-.581C15.862 4.72 17.82 4.5 20 4.5c2.18 0 4.138.221 5.536.57.702.177 1.235.378 1.58.582.173.102.278.192.335.262a.287.287 0 0 1 .049.082V6Z"/></svg>
